X: 35677
T: Sailor's Wife, The
R: jig
M: 6/8
K: Eminor
|:EFG F2E|e2f g2a|bag fed|B/c/dB AFD|
EFG F2E|e2f g2a|bge af^d|1 e3 eBG:|2 e3 e2f||
|:gab b3|gab bag|fda fda|fda agf|
gab bag|fga aga|bge af^d|1 e3 e2f:|2 e3 eBG||

